X:1
T:The Strawberry Roan
M:3/4
L:1/4
K:C
 z2 C/2C/2| E E E| E D C| B, D D| D3| F F F| F E D| C E E| E2 E/2E/2|\
 G G G| c c3/2 c/2| B A3/2 A/2| A2 D/2D/2| D E F| B- A G/2G/2| G F D|\
 E3| E E E| E3/2 D/2 C| B, D D| D2 D/2E/2| F F F| F E D| C E E| E2 E|\
 G G G| c2 B/2B/2| B A A| A2 D| D E F| B A G| G F D| C E F| G2 G| F E D|\
 C3-| C3| A2 A| F G A| G3-| G2 A| A A A| F G A| G A G| E2 G/2G/2| A A A|\
 F G A| G A G| E3| G2 G| F E D| C3-| C2 z|
